**kern	**kern
*staff1	*staff2
*clefG2	*clefG2
*k[b-]	*k[b-]
*M2/4	*M2/4
*F:	*F:
4r	(8cL
.	16fJk)
.	16r
=251	=251
2r	(8fL
.	16aJk)
.	16r
.	(8aL
.	16ccJk)
.	16r
=252	=252
16r	(4b-
16ccLL	.
16dd	.
16eeJJ	.
16ffLL	4a)
16ee	.
16dd	.
16ccJJ	.
=253	=253
16b-LL	8gL
16cc	.
16dd-	8fJ
16ccJJ	.
16b-LL	8eL
16cc	.
16b-	8fJ
16ccJJ	.
=254	=254
16b-LL	4g
16cc	.
16b-	.
16ccJJ	.
(8ccL	16r
.	16ccLL
16ffJk)	16b
16r	16ccJJ
=255	=255
(8ffL	16aLL
.	16cc
16aaJk)	16b
16r	16ccJJ
(8aaL	16b-LL
.	16a
16cccJk)	16g
16r	16fJJ
=256	=256
(4bb-	16eLL
.	16c
.	16d
.	16eJJ
4aa)	16fLL
.	16g
.	16a
.	16fJJ
=257	=257
8ggL	16b-LL
.	16g
8ggJ	16d
.	16B-JJ
(8eeL	16cLL
.	16e
16ddL	16g
16eeJJ)	16b-JJ
=258	=258
4ff	8aL
.	8fJ
*-	*-
